src/objects/office/1F4C7.svg

<svg id="emoji" viewBox="0 0 72 72" xmlns="http://www.w3.org/2000/svg">
  <g id="grid">
    <path fill="#b3b3b3" d="M68,4V68H4V4H68m4-4H0V72H72V0Z"/>
    <path fill="none" stroke="#00a5ff" stroke-miterlimit="10" stroke-width="0.1" d="M12.923,10.9583H59.0769A1.9231,1.9231,0,0,1,61,12.8814V59.0352a1.9231,1.9231,0,0,1-1.9231,1.9231H12.9231A1.9231,1.9231,0,0,1,11,59.0352V12.8813A1.923,1.923,0,0,1,12.923,10.9583Z"/>
    <rect x="16" y="4" rx="2.2537" ry="2.2537" width="40" height="64" fill="none" stroke="#00a5ff" stroke-miterlimit="10" stroke-width="0.1"/>
    <rect x="16" y="4" rx="2.2537" ry="2.2537" width="40" height="64" transform="translate(72) rotate(90)" fill="none" stroke="#00a5ff" stroke-miterlimit="10" stroke-width="0.1"/>
    <circle cx="36" cy="36" r="29" fill="none" stroke="#00a5ff" stroke-miterlimit="10" stroke-width="0.1"/>
  </g>
  <g id="color">
    <rect x="11" y="18.1926" width="9" height="4.8074" fill="#ea5a47"/>
    <rect x="22.8604" y="18.1926" width="9" height="4.8074" fill="#b1cc33"/>
    <rect x="34.7209" y="18.1926" width="9" height="4.8074" fill="#92d3f5"/>
    <rect x="11" y="23" width="50" height="30" fill="#d0cfce"/>
  </g>
  <g id="line">
    <path fill="none" stroke="#000" stroke-linecap="round" stroke-linejoin="round" stroke-width="2" d="M11.9008,18.1926h7.1985A.9008.9008,0,0,1,20,19.0934V23a0,0,0,0,1,0,0H11a0,0,0,0,1,0,0V19.0934A.9008.9008,0,0,1,11.9008,18.1926Z"/>
    <path fill="none" stroke="#000" stroke-linecap="round" stroke-linejoin="round" stroke-width="2" d="M23.7612,18.1926H30.96a.9008.9008,0,0,1,.9008.9008V23a0,0,0,0,1,0,0h-9a0,0,0,0,1,0,0V19.0934A.9008.9008,0,0,1,23.7612,18.1926Z"/>
    <path fill="none" stroke="#000" stroke-linecap="round" stroke-linejoin="round" stroke-width="2" d="M35.6216,18.1926H42.82a.9008.9008,0,0,1,.9008.9008V23a0,0,0,0,1,0,0h-9a0,0,0,0,1,0,0V19.0934A.9008.9008,0,0,1,35.6216,18.1926Z"/>
    <rect x="11" y="23" width="50" height="30" fill="none" stroke="#000" stroke-linecap="round" stroke-linejoin="round" stroke-width="2"/>
  </g>
</svg>

<svg viewBox="0 0 72 72" xmlns="http://www.w3.org/2000/svg"><path fill="#b3b3b3" d="M68 4v64H4V4h64m4-4H0v72h72V0z"/><path fill="none" stroke="#00a5ff" stroke-miterlimit="10" stroke-width=".1" d="M12.923 10.958h46.154A1.923 1.923 0 0161 12.881v46.154a1.923 1.923 0 01-1.923 1.923H12.923A1.923 1.923 0 0111 59.035V12.881a1.923 1.923 0 011.923-1.923z"/><rect x="16" y="4" rx="2.254" ry="2.254" width="40" height="64" fill="none" stroke="#00a5ff" stroke-miterlimit="10" stroke-width=".1"/><rect x="16" y="4" rx="2.254" ry="2.254" width="40" height="64" transform="rotate(90 36 36)" fill="none" stroke="#00a5ff" stroke-miterlimit="10" stroke-width=".1"/><circle cx="36" cy="36" r="29" fill="none" stroke="#00a5ff" stroke-miterlimit="10" stroke-width=".1"/><path d="M11.9 18.193h7.2a.9.9 0 01.9.9V23h0-9 0v-3.907a.9.9 0 01.9-.9zm11.861 0h7.199a.9.9 0 01.9.9V23h0-9 0v-3.907a.9.9 0 01.901-.9zm11.861 0h7.198a.9.9 0 01.9.9V23h0-9 0v-3.907a.9.9 0 01.902-.9zM11 23h50v30H11z" stroke-linecap="round" stroke-miterlimit="10" stroke-width="6" stroke="#fff" fill="none" stroke-linejoin="round"/><path fill="#ea5a47" d="M11 18.193h9V23h-9z"/><path fill="#b1cc33" d="M22.86 18.193h9V23h-9z"/><path fill="#92d3f5" d="M34.721 18.193h9V23h-9z"/><path fill="#d0cfce" d="M11 23h50v30H11z"/><g fill="none" stroke="#000" stroke-linecap="round" stroke-linejoin="round" stroke-width="2"><path d="M11.9 18.193h7.2a.9.9 0 01.9.9V23h0-9 0v-3.907a.9.9 0 01.9-.9zm11.861 0h7.199a.9.9 0 01.9.9V23h0-9 0v-3.907a.9.9 0 01.901-.9zm11.861 0h7.198a.9.9 0 01.9.9V23h0-9 0v-3.907a.9.9 0 01.902-.9zM11 23h50v30H11z"/></g></svg>
